modules/devicons/icons/windows.svg

<?xml version="1.0" encoding="utf-8"?>
<!-- Generated by IcoMoon.io -->
<!DOCTYPE svg PUBLIC "-//W3C//DTD SVG 1.1//EN" "http://www.w3.org/Graphics/SVG/1.1/DTD/svg11.dtd">
<svg version="1.1" xmlns="http://www.w3.org/2000/svg" xmlns:xlink="http://www.w3.org/1999/xlink" width="32" height="32" viewBox="0 0 32 32">
<path fill="#444444" d="M13.821 15.761h-9.038v-7.747l9.038-1.291zM27.217 15.761h-12.185v-9.198l12.185-1.777zM13.821 16.81h-9.038v7.747l9.038 1.291zM27.217 16.81h-12.185v9.198l12.185 1.777z"></path>
</svg>

<svg xmlns="http://www.w3.org/2000/svg" width="32" height="32" viewBox="0 0 32 32"><path fill="#444" d="M13.821 15.761H4.783V8.014l9.038-1.291zm13.396 0H15.032V6.563l12.185-1.777zM13.821 16.81H4.783v7.747l9.038 1.291zm13.396 0H15.032v9.198l12.185 1.777z"/></svg>
